X:0220
T:The tenth of June.
M:C|
L:1/8
Q:1/2=104
I: || (1) :| (2) ||
Z:Jack Campin * www.campin.me.uk * 2009
K:A Dorian
EAAB c2(ce)|d(cTBA) GABG|   AE E/E/E c2ce| dBgB          A/A/A A2||
agea geae  |gddg    BGdB|[1 agea     geae| fdgB          A/A/A A2:|
                         [2 cAdB     ecfd|(f/e/f/g/ a).c A/A/A A2|]

